X:906
M:C|
L:1/8
K:D
|:de|f2 df dfdf|e2 ce cece|f2 df dfdf|edcB A2 Bc|dBdB cAcA|
dBdB cAcA|afge fdec|d2 d2 d2:|

